docs/images/single-tenant/component-cim-icon.svg

<?xml version="1.0" encoding="UTF-8" standalone="no"?>
<svg width="142px" height="89px" viewBox="0 0 142 89" version="1.1" xmlns="http://www.w3.org/2000/svg" xmlns:xlink="http://www.w3.org/1999/xlink">
    <!-- Generator: sketchtool 39.1 (31720) - http://www.bohemiancoding.com/sketch -->
    <title>BEE2E79F-8A0F-492E-BA49-35490636A041</title>
    <desc>Created with sketchtool.</desc>
    <defs></defs>
    <g id="Onegini-Documentation" stroke="none" stroke-width="1" fill="none" fill-rule="evenodd">
        <g id="Onegini-Documentation---Landing-Page" transform="translate(-352.000000, -2122.000000)" fill="#00AEEF">
            <g id="Optional-Components" transform="translate(239.000000, 1980.000000)">
                <g id="Consumer-Identity-Manager" transform="translate(0.000000, 85.000000)">
                    <g id="employee-card" transform="translate(113.000000, 57.000000)">
                        <g id="Capa_1">
                            <g id="Group">
                                <path d="M6.52705223,0.220518038 C2.92803563,0.220518038 0,2.81016181 0,5.99324155 L0,82.9736642 C0,86.1567439 2.92803563,88.7463877 6.52705223,88.7463877 L134.53299,88.7463877 C138.132006,88.7463877 141.060042,86.1567439 141.060042,82.9736642 L141.060042,5.99324155 C141.060042,2.81016181 138.132006,0.220518038 134.53299,0.220518038 L6.52705223,0.220518038 Z M124.121362,69.2126459 L77.7039041,69.2126459 L77.7039041,61.5271304 L124.121689,61.5271304 L124.121689,69.2126459 L124.121362,69.2126459 Z M124.121362,51.5241551 L77.7039041,51.5241551 L77.7039041,43.8386396 L124.121689,43.8386396 L124.121689,51.5241551 L124.121362,51.5241551 Z M124.121362,33.8356643 L77.7039041,33.8356643 L77.7039041,26.1501489 L124.121689,26.1501489 L124.121689,33.8356643 L124.121362,33.8356643 Z M53.9665975,56.394302 L51.1215869,56.394302 C47.9820935,56.3921377 45.4375634,53.809139 45.4354313,50.6221821 L45.4354313,48.7661572 C46.6767676,47.2338068 47.597452,45.4607305 48.1412838,43.5551612 C48.1992663,43.2333979 48.5007756,43.0764402 48.7056473,42.8566994 C49.8120321,41.6958324 50.011838,39.9251236 49.1927007,38.5403623 C49.0353714,38.364488 48.93077,38.1466771 48.8911914,37.9125315 L48.8911914,32.8310256 C48.8448054,30.7866514 48.2727109,28.6637983 46.8618021,27.1530804 C45.6915615,25.9609613 44.18306,25.1706092 42.5479002,24.8928893 C40.5004773,24.4835613 38.3896894,24.5331112 36.3630946,25.0380752 C34.5771973,25.4657559 33.007891,26.5436 31.9525551,28.067359 C31.0900544,29.4335326 30.6189403,31.0163322 30.5918979,32.6387524 C30.5648393,34.3613633 30.5918979,36.0878981 30.5918979,37.8144329 C30.6305529,38.1597399 30.3406401,38.3951764 30.2053475,38.6816243 C29.438731,40.1524134 29.7719263,41.9655353 31.0093722,43.0568205 C31.2717105,43.3155831 31.4428659,43.6547957 31.4964257,44.0221104 C32.0477316,45.7275186 32.917901,47.3089765 34.0592545,48.6798305 L34.0592545,50.5986385 C34.0571224,53.7855953 31.5125923,56.368594 28.3730989,56.3707583 L25.5280883,56.3707583 C25.5280883,56.3707583 20.3715066,57.8147693 16.9969221,65.0309 L16.9969221,67.9189219 C16.9958943,68.6851923 17.2953056,69.4203783 17.8290716,69.9622138 C18.3628375,70.5040492 19.0870743,70.8079871 19.8419326,70.8069438 L59.6566187,70.8069438 C60.411477,70.8079871 61.1357138,70.5040492 61.6694798,69.9622138 C62.2032457,69.4203783 62.502657,68.6851923 62.5016293,67.9189219 L62.5016293,65.0309 C59.1231792,57.8147693 53.970463,56.3707583 53.970463,56.3707583 L53.9665975,56.394302 Z" id="Combined-Shape"></path>
                            </g>
                        </g>
                    </g>
                </g>
            </g>
        </g>
    </g>
</svg>

<svg width="142" height="89" viewBox="0 0 142 89" xmlns="http://www.w3.org/2000/svg"><title>Identity &amp; Single Sign on</title><path d="M6.527.22C2.928.22 0 2.81 0 5.994v76.98c0 3.184 2.928 5.773 6.527 5.773h128.006c3.599 0 6.527-2.59 6.527-5.772V5.994c0-3.184-2.928-5.773-6.527-5.773H6.527zm117.594 68.993H77.704v-7.686h46.418v7.686zm0-17.689H77.704V43.84h46.418v7.685zm0-17.688H77.704V26.15h46.418v7.686zM53.967 56.394h-2.845c-3.14-.002-5.684-2.585-5.687-5.772v-1.856a14.676 14.676 0 0 0 2.706-5.21c.058-.323.36-.48.565-.7a3.608 3.608 0 0 0 .487-4.316 1.255 1.255 0 0 1-.302-.627V32.83c-.046-2.044-.618-4.167-2.03-5.678a7.9 7.9 0 0 0-4.313-2.26 14.121 14.121 0 0 0-6.185.145 7.492 7.492 0 0 0-4.41 3.03 8.842 8.842 0 0 0-1.361 4.57c-.027 1.723 0 3.45 0 5.176.039.346-.251.581-.387.868a3.616 3.616 0 0 0 .804 4.375 1.7 1.7 0 0 1 .487.965 14.017 14.017 0 0 0 2.563 4.658v1.919c-.002 3.187-2.546 5.77-5.686 5.772h-2.845s-5.156 1.444-8.531 8.66v2.888a2.906 2.906 0 0 0 .832 2.043 2.82 2.82 0 0 0 2.013.845h39.815a2.82 2.82 0 0 0 2.012-.845 2.906 2.906 0 0 0 .833-2.043V65.03c-3.379-7.216-8.532-8.66-8.532-8.66l-.003.023z" fill="#EB4D00" fill-rule="evenodd"/></svg>
